svg/nature/butterfly_2_fill.svg

<svg xmlns="http://www.w3.org/2000/svg" width="24" height="24" viewBox="0 0 24 24"><g fill="none" fill-rule="evenodd"><path d="M24,0 L24,24 L0,24 L0,0 L24,0 Z M12.5935,23.2578 L12.5819,23.2595 L12.5109,23.295 L12.4919,23.2987 L12.4767,23.295 L12.4057,23.2595 C12.3958,23.2564 12.387,23.259 12.3821,23.2649 L12.378,23.2758 L12.3609,23.7031 L12.3659,23.7235 L12.3769,23.7357 L12.4805,23.8097 L12.4953,23.8136 L12.5071,23.8097 L12.6107,23.7357 L12.6233,23.7197 L12.6267,23.7031 L12.6096,23.2758 C12.6076,23.2657 12.601,23.2593 12.5935,23.2578 Z M12.8584,23.1453 L12.8445,23.1473 L12.6598,23.2397 L12.6499,23.2499 L12.6472,23.2611 L12.6651,23.6906 L12.6699,23.7034 L12.6784,23.7105 L12.8793,23.8032 C12.8914,23.8069 12.9022,23.803 12.9078,23.7952 L12.9118,23.7812 L12.8777,23.1665 C12.8753,23.1546 12.8674,23.147 12.8584,23.1453 Z M12.143,23.1473 C12.1332,23.1424 12.1222,23.1453 12.1156,23.1526 L12.1099,23.1665 L12.0758,23.7812 C12.0751,23.7927 12.0828,23.8019 12.0926,23.8046 L12.1083,23.8032 L12.3092,23.7105 L12.3186,23.7024 L12.3225,23.6906 L12.3404,23.2611 L12.3372,23.2485 L12.3278,23.2397 L12.143,23.1473 Z"/><path fill="#09244B" d="M12.0001,6.14858 C10.7111,5.01612 9.22672,4.2788 7.78317,4.01634 C6.15625,3.72053 4.47729,4.0206 3.30099,5.19691 C2.14773,6.35016 1.83643,7.98796 2.1038,9.58396 C2.34348,11.0147 3.05252,12.4896 4.15072,13.7782 C4.05224,14.17 4.00006,14.5795 4.00006,15.0002 C4.00006,17.7617 6.23864,20.0002 9.00006,20.0002 C10.1256,20.0002 11.1648,19.6276 12.0001,19.0004 C12.8353,19.6276 13.8745,20.0002 15.0001,20.0002 C17.7615,20.0002 20.0001,17.7617 20.0001,15.0002 C20.0001,14.5795 19.9479,14.17 19.8494,13.7782 C20.9476,12.4896 21.6567,11.0147 21.8963,9.58397 C22.1637,7.98796 21.8524,6.35016 20.6992,5.19691 C19.5228,4.0206 17.8439,3.72054 16.217,4.01634 C14.7734,4.2788 13.2891,5.01612 12.0001,6.14858 Z"/></g></svg>

<svg xmlns="http://www.w3.org/2000/svg" width="24" height="24"><g fill="none" fill-rule="evenodd"><path d="M24 0v24H0V0zM12.594 23.258l-.012.002-.071.035-.02.004-.014-.004-.071-.036c-.01-.003-.019 0-.024.006l-.004.01-.017.428.005.02.01.013.104.074.015.004.012-.004.104-.074.012-.016.004-.017-.017-.427c-.002-.01-.009-.017-.016-.018m.264-.113-.014.002-.184.093-.01.01-.003.011.018.43.005.012.008.008.201.092c.012.004.023 0 .029-.008l.004-.014-.034-.614c-.003-.012-.01-.02-.02-.022m-.715.002a.023.023 0 0 0-.027.006l-.006.014-.034.614c0 .012.007.02.017.024l.015-.002.201-.093.01-.008.003-.011.018-.43-.003-.012-.01-.01z"/><path fill="#09244B" d="M12 6.149c-1.289-1.133-2.773-1.87-4.217-2.133-1.627-.295-3.306.005-4.482 1.18C2.148 6.35 1.836 7.989 2.104 9.585c.24 1.43.949 2.906 2.047 4.194A5 5 0 0 0 12 19a5 5 0 0 0 7.85-5.222c1.097-1.288 1.806-2.763 2.045-4.194.268-1.596-.044-3.234-1.197-4.387-1.176-1.176-2.855-1.476-4.482-1.18-1.444.262-2.928 1-4.217 2.132"/></g></svg>
